X:51
T:Simon MacKenzie's Welcome to his Twin Sisters
C:Phil Cunningham
M:2/4
L:1/8
K:G
A/2>B/2A/2<G/2 AA/2<g/2 | ee/2<g/2 ee/2>d/2 |B/2>a/2B/2<G/2 de/2<g/2 |ag/2>e/2 d/2<B/2e2 |
A/2>B/2A/2<G/2 AA/2<g/2 |ee/2<g/2 ee/2>d/2 |B/2>A/2B/2<G/2 de/2<g/2 |1 
(3G/2G/2G/2 B/2>G/2 A(3A/2A/2e/2 :||2 (3G/2G/2G/2 B/2>G/2 A/2>A/2A ||
|: a/2>e/2e/2>f/2 gf/2<e/2 |de/2>f/2 g/2>e/2d/2A/2B/2<G/2 de/2<g/2 |
ag/2>e/2 d/2e/2e/2>f/2 gf/2<e/2|de/2>f/2 g/2>e/2d/2<B/2 |
G/2>A/2B/2<G/2 de/2<g/2 | (3G/2G/2G/2 B/2>G/2 A/2>A/2A :||2 A/2>B/2A/2<G/2 AA/2<g/2 |
ee/2<g/2 ee/2>d/2 |B/2>A/2B/2<G/2 de/2<g/2 | (3G/2G/2G/2 B/2>G/2 A/2>A/2A ||
